X: 39795
T: Thelonious' Fancy
R: reel
M: 4/4
K: Dmajor
|:DFA F^E_Ac^e|fdAF =c3B|ABAF DFAF|GECE 3A,C^E^G|
DFAF ^E_Ac^e|fdAF =c3B|ABAF DFAF|1 GECE DA,(3A,A,A,:|2 GECE DEFG||
|:Ad(3ddd f^efa|bafd (3B^Bc d=B|Ad(3ddd f^efa|ba^ec_B4|
Ad(3ddd f^efa|bafd (3B^Bcd=e|fdAFG ^A=Bc|1 dBAF DEFG:|2 dBAF GECEC||

